app/icon.svg

<svg xmlns="http://www.w3.org/2000/svg" xml:space="preserve" viewBox="0 0 180 180">
  <g style="clip-rule:evenodd;fill-rule:evenodd;stroke-linejoin:round;stroke-miterlimit:2">
    <rect width="180" height="180" ry="21.645" style="fill:#000"/>
  </g>
  <g style="clip-rule:evenodd;fill-rule:evenodd;stroke-linejoin:round;stroke-miterlimit:2">
    <path d="M559.24 398.12c0 29.37 0 65.9 11.93 94.21 12.53 31.28 39.49 47.24 80.11 47.24 38.77 0 66.05-17.26 81.06-51.28v-.11l.06-.13c8.2-20.11 11.16-42.84 12.24-63.15.275-5.077 4.535-9.103 9.62-9.09h167.442c5.272 0 9.61 4.338 9.61 9.61l-.002.18c-2 88-15.53 141.56-75 208-67 73.69-164.3 81.67-207 81.67-86.65 0-148.1-27.83-201-82.69-46.51-48.31-75.34-104.37-75.34-234.45l31.88-159.67" style="fill:#fff;fill-rule:nonzero" transform="translate(2.51 22.809) scale(.18788)"/>
    <path d="M559.24 606.65V317.14c0-29.37 0-65.9 11.93-94.21 12.53-31.29 39.49-47.24 80.11-47.24 38.77 0 66.05 17.26 81.06 51.28v.11l.06.13c8.2 20.11 11.16 42.84 12.24 63.15.275 5.076 4.537 9.098 9.62 9.08h167.452c5.266 0 9.6-4.334 9.6-9.6l-.002-.18c-2-88-15.53-141.56-75-208C789.26 8 692 0 649.25 0c-86.65 0-148.1 27.82-201 82.69-46.51 48.3-75.34 104.37-75.34 234.45v225.94" style="fill:#fff;fill-rule:nonzero" transform="translate(2.51 22.809) scale(.18788)"/>
    <path d="M558.89 416.32c0 130.08-29.34 167.94-75.85 216.25-52.88 54.86-114.33 82.69-201 82.69-42.71 0-140-8-207-81.67-59.51-66.43-73-120-75-208l-.002-.17c0-5.277 4.343-9.62 9.62-9.62H177c5.083-.012 9.34 4.014 9.61 9.09 1.09 20.31 4.05 43 12.24 63.15l.06.13v.11c15 34 42.29 51.28 81.07 51.28 40.61 0 67.58-16 80.11-47.24 11.92-28.31 12.94-46.64 12.94-76" style="fill:#fff;fill-rule:nonzero" transform="translate(2.51 22.809) scale(.18788)"/>
  </g>
  <g style="clip-rule:evenodd;fill-rule:evenodd;stroke-linejoin:round;stroke-miterlimit:2">
    <circle cx="279.06" cy="88.9" r="88.37" style="fill:#ff0a52" transform="translate(-20.668 22.484) scale(.25646)"/>
  </g>
</svg>

<?xml version="1.0" encoding="UTF-8" standalone="no"?>
<!DOCTYPE svg PUBLIC "-//W3C//DTD SVG 1.1//EN" "http://www.w3.org/Graphics/SVG/1.1/DTD/svg11.dtd">
<svg width="100%" height="100%" viewBox="0 0 1080 1080" version="1.1" xmlns="http://www.w3.org/2000/svg" xmlns:xlink="http://www.w3.org/1999/xlink" xml:space="preserve" xmlns:serif="http://www.serif.com/" style="fill-rule:evenodd;clip-rule:evenodd;stroke-linejoin:round;stroke-miterlimit:2;">
    <g transform="matrix(1.46077,0,0,1.46077,-210.772,-311.082)">
        <circle cx="513.957" cy="582.627" r="369.669"/>
    </g>
    <g transform="matrix(1,0,0,1,74.3634,182.365)">
        <g id="letters" transform="matrix(1,0,0,1,-0.0384978,0)">
            <path d="M559.24,398.12C559.24,427.49 559.24,464.02 571.17,492.33C583.7,523.61 610.66,539.57 651.28,539.57C690.05,539.57 717.33,522.31 732.34,488.29L732.34,488.18L732.4,488.05C740.6,467.94 743.56,445.21 744.64,424.9C744.915,419.823 749.175,415.797 754.26,415.81L921.69,415.81C921.694,415.81 921.698,415.81 921.702,415.81C926.974,415.81 931.312,420.148 931.312,425.42C931.312,425.48 931.311,425.54 931.31,425.6C929.31,513.6 915.78,567.16 856.31,633.6C789.31,707.29 692.01,715.27 649.31,715.27C562.66,715.27 501.21,687.44 448.31,632.58C401.8,584.27 372.97,528.21 372.97,398.13L404.85,238.46" style="fill:white;fill-rule:nonzero;"/>
            <path d="M559.24,606.65L559.24,317.14C559.24,287.77 559.24,251.24 571.17,222.93C583.7,191.64 610.66,175.69 651.28,175.69C690.05,175.69 717.33,192.95 732.34,226.97L732.34,227.08L732.4,227.21C740.6,247.32 743.56,270.05 744.64,290.36C744.915,295.436 749.177,299.458 754.26,299.44L921.69,299.44C921.697,299.44 921.704,299.44 921.712,299.44C926.978,299.44 931.312,295.106 931.312,289.84C931.312,289.78 931.311,289.72 931.31,289.66C929.31,201.66 915.78,148.1 856.31,81.66C789.26,8 692,0 649.25,0C562.6,0 501.15,27.82 448.25,82.69C401.74,130.99 372.91,187.06 372.91,317.14L372.91,543.08" style="fill:white;fill-rule:nonzero;"/>
            <path d="M558.89,416.32C558.89,546.4 529.55,584.26 483.04,632.57C430.16,687.43 368.71,715.26 282.04,715.26C239.33,715.26 142.04,707.26 75.04,633.59C15.53,567.16 2.04,513.59 0.04,425.59C0.039,425.533 0.038,425.477 0.038,425.42C0.038,420.143 4.381,415.8 9.658,415.8C9.659,415.8 9.659,415.8 9.66,415.8L177,415.8C182.083,415.788 186.34,419.814 186.61,424.89C187.7,445.2 190.66,467.89 198.85,488.04L198.91,488.17L198.91,488.28C213.91,522.28 241.2,539.56 279.98,539.56C320.59,539.56 347.56,523.56 360.09,492.32C372.01,464.01 373.03,445.68 373.03,416.32" style="fill:white;fill-rule:nonzero;"/>
        </g>
        <g id="circle" transform="matrix(1,0,0,1,-0.0384978,0)">
            <circle cx="279.06" cy="88.9" r="88.37" style="fill:rgb(255,10,82);"/>
        </g>
    </g>
</svg>
